assets/picture.svg

<svg height="360" viewBox="0 0 640 360" width="640" xmlns="http://www.w3.org/2000/svg"><g fill="none" fill-rule="evenodd"><path d="m0 0h640v360h-640z" fill="#4a90e2"/><g transform="translate(134 125)"><path d="m54.5524465 46.2652594c-4.8416021 8.2112585-9.4802304 16.1631278-14.2153841 24.054928-1.2160387 2.0259656-1.8177433 3.6760444-.8461753 6.2517329 2.6819607 7.114543-1.1014712 14.0379572-8.2127717 15.9173907-6.7062549 1.7729474-13.2402077-2.6739833-14.5708138-9.9177658-1.1790523-6.4119171 3.7527604-12.6973251 10.7594166-13.6993862.5872709-.0846428 1.1862692-.0946543 2.173173-.1692855 3.4334149-5.8084961 6.9507256-11.7580634 10.6583807-18.0316396-6.7035487-6.7250042-10.6935629-14.5867699-9.8104012-24.3279691.6242572-6.8860986 3.3080222-12.836576 8.2136738-17.71400165 9.3954325-9.33982864 23.7289925-10.85247678 34.7915166-3.68332552 10.6250028 6.88609857 15.4909618 20.29970157 11.343079 31.78017307-3.127601-.855529-6.2768525-1.7183391-9.7391348-2.665792 1.3026409-6.3827927.3391918-12.1148372-3.9277689-17.0250278-2.8190808-3.2419089-6.4365253-4.9411352-10.550128-5.5673096-8.2461496-1.2568996-16.3425497 4.0883366-18.7448576 12.2540882-2.727066 9.2679277 1.4000683 16.8384495 12.6781957 22.5431899z" fill="#fff"/><path d="m68.7765924 36.7797206c3.4108623 6.0706156 6.8740467 12.2331551 10.3065595 18.339266 17.3492998-5.4153168 30.4298351 4.2740046 35.1225891 14.6477492 5.667931 12.5307699 1.793387 27.3723783-9.3386 35.1030842-11.4260723 7.936397-25.8760039 6.580292-35.9994359-3.614155 2.5800228-2.1788687 5.172675-4.3677488 7.9430421-6.7058915 9.9989413 6.5338755 18.7439555 6.2262495 25.2364118-1.5108278 5.536223-6.6003155 5.416243-16.4416298-.280555-22.9036043-6.5745478-7.4567547-15.3809052-7.684289-26.0257543-.5260594-4.4158082-7.903632-8.9082954-15.7444646-13.1842771-23.7054353-1.4415652-2.6830846-3.033782-4.2394193-6.2831673-4.807345-5.4270689-.9492732-8.930848-5.6510423-9.1410387-10.9189168-.2065822-5.2096257 2.8353187-9.9186759 7.5903187-11.7535127 4.7098947-1.8175441 10.2370973-.3504028 13.405293 3.6896965 2.5890438 3.3010679 3.4117644 7.0162482 2.0495845 11.0872922-.3788844 1.1349412-.86963 2.2334769-1.4009704 3.5786597z" fill="#4b4b4b"/><path d="m76.6970213 86.800298h-20.8855548c-2.0017729 8.3068229-6.3255663 15.013624-13.7760586 19.278528-5.7915196 3.31472-12.0340921 4.438739-18.6781017 3.356586-12.2325554-1.99047-22.23510519-13.1005159-23.11556051-25.6112628-.99682697-14.1717474 8.65841202-26.7689573 21.52785421-29.5985741.8885742 3.255561 1.7861696 6.5420667 2.6747438 9.7894365-11.8076635 6.0778966-15.89420306 13.7357916-12.5897893 23.3113458 2.9092914 8.4269609 11.172581 13.0459076 20.1449259 11.2593081 9.1626892-1.8239151 13.7823733-9.5063837 13.2185571-21.8360133 8.6863773 0 17.3799714-.0910137 26.0672508.0445967 3.3919181.0536981 6.0107314-.3012554 8.5663973-3.3183605 4.2074217-4.9647987 11.9510984-4.5170112 16.4823761.172016 4.6305094 4.7918727 4.4085914 12.5025556-.4916477 17.0923779-4.7279368 4.4287279-12.1973733 4.1920922-16.6203983-.5797575-.9093227-.9838584-1.6255948-2.1515645-2.5249943-3.3602268z" fill="#4a4a4a"/></g><path d="m283.777162 189.619052h7.203022l4.137648 19.766676 4.236452-19.766676h7.403061l-7.876027 27.447353h-7.302637l-4.263179-19.994143-4.31177 19.994143h-7.377146l-7.626586-27.447353h7.626586l4.237263 19.6914zm42.749215.556393c1.895106.857499 3.459783 2.210843 4.694842 4.060032 1.112767 1.630722 1.834365 3.522458 2.164794 5.675207.19032 1.260885.268878 3.076526.233244 5.446923h-19.78685c.110953 2.753327 1.057696 4.684338 2.841849 5.791396 1.084422.688945 2.389939 1.0326 3.916552 1.0326 1.618129 0 2.931745-.41975 3.944088-1.25843.552335-.454115 1.039069-1.082512 1.461823-1.889281h7.252425c-.19113 1.628267-1.069034 3.282718-2.633711 4.960079-2.434482 2.669868-5.840004 4.004393-10.220614 4.004393-3.615279 0-6.805374-1.125878-9.568665-3.376815-2.764101-2.251754-4.145747-5.914947-4.145747-10.989578 0-4.754705 1.247207-8.400715 3.742429-10.937212 2.494413-2.537315 5.732291-3.805564 9.715253-3.805564 2.363213-.000818 4.493182.42875 6.388288 1.28625zm-10.626361 6.19969c-1.004244 1.044873-1.635946 2.46122-1.893486 4.248223h12.238011c-.12958-1.905646-.759662-3.351449-1.891866-4.33741-1.132205-.986779-2.537337-1.480169-4.212967-1.480169-1.823027.000818-3.236257.522846-4.239692 1.569356zm43.925964-3.457819c2.032784 2.602774 3.048366 5.95995 3.048366 10.073167 0 4.26377-1.001814 7.797683-3.007063 10.600921-2.004439 2.804057-4.800935 4.205676-8.391108 4.205676-2.2555 0-4.066379-.453296-5.436686-1.35989-.818783-.536755-1.703975-1.476895-2.654768-2.819602v3.449636h-7.003793v-37.067224h7.103408v13.194694c.903009-1.275612 1.898345-2.2493 2.985196-2.921062 1.28851-.838681 2.926886-1.25843 4.915937-1.25843 3.593413 0 6.408536 1.300159 8.440511 3.902114zm-5.937189 16.720426c1.022061-1.493261 1.533902-3.457819 1.533902-5.892038 0-1.947375-.251871-3.559278-.754803-4.834072-.954842-2.417855-2.713889-3.626373-5.277141-3.626373-2.597267 0-4.38142 1.183153-5.352459 3.550278-.502932 1.259248-.754803 2.887515-.754803 4.885621 0 2.349941.519939 4.297317 1.559008 5.842125 1.038259 1.544809 2.620753 2.316395 4.749103 2.316395 1.843274-.000818 3.275132-.747039 4.297193-2.241936zm32.072643-19.867319c1.363828.588304 2.484694 1.486715 3.360978 2.69687.745084 1.025235 1.199424 2.079927 1.365448 3.163257s.248632 2.851514.248632 5.304552v16.130485h-7.252425v-16.713061c0-1.479351-.248631-2.673141-.743465-3.579734-.64223-1.277249-1.86352-1.916283-3.660632-1.916283-1.86514 0-3.278371.634124-4.243741 1.903191-.96456 1.269067-1.447245 3.079799-1.447245 5.433013v14.873692h-7.103408v-36.991128h7.103408v13.094052c1.02692-1.593902 2.213386-2.706687 3.560207-3.335902 1.349251-.630034 2.768151-.944232 4.258319-.944232 1.670771-.000818 3.188475.293743 4.553924.881228zm32.702724 23.937987c-2.292754 2.859696-5.774403 4.289135-10.443329 4.289135-4.669735 0-8.149765-1.429439-10.444139-4.289135-2.291944-2.859695-3.438726-6.301968-3.438726-10.328452 0-3.957754 1.146782-7.387753 3.438726-10.289996 2.293564-2.901426 5.774404-4.352138 10.444139-4.352138 4.668926 0 8.149765 1.450712 10.443329 4.352138 2.293565 2.902243 3.439537 6.332242 3.439537 10.289996 0 4.026484-1.145972 7.468757-3.439537 10.328452zm-5.682078-3.965936c1.112768-1.491623 1.669961-3.612462 1.669961-6.361698 0-2.748417-.557193-4.865165-1.669961-6.348607-1.113577-1.482623-2.708219-2.225572-4.784737-2.225572-2.077328 0-3.67683.74213-4.798506 2.225572-1.121675 1.483442-1.682108 3.599371-1.682108 6.348607s.560433 4.870075 1.682108 6.361698c1.121676 1.491624 2.720368 2.237027 4.798506 2.237027 2.076518 0 3.67116-.745403 4.784737-2.237027zm35.472495 3.965936c-2.291944 2.859696-5.773594 4.289135-10.443329 4.289135s-8.148955-1.429439-10.44171-4.289135c-2.293564-2.859695-3.440346-6.301968-3.440346-10.328452 0-3.957754 1.146782-7.387753 3.440346-10.289996 2.291945-2.901426 5.771975-4.352138 10.44171-4.352138s8.150575 1.450712 10.443329 4.352138c2.293564 2.902243 3.440346 6.332242 3.440346 10.289996 0 4.026484-1.146782 7.468757-3.440346 10.328452zm-5.681268-3.965936c1.111957-1.491623 1.669961-3.612462 1.669961-6.361698 0-2.748417-.558004-4.865165-1.669961-6.348607-1.113577-1.482623-2.70822-2.225572-4.784738-2.225572-2.077327 0-3.677639.74213-4.799315 2.225572s-1.681299 3.599371-1.681299 6.348607.559623 4.870075 1.681299 6.361698c1.121676 1.491624 2.721178 2.237027 4.799315 2.237027 2.076518 0 3.671161-.745403 4.784738-2.237027zm12.641328-29.667197h6.978687v20.023599l8.95883-10.352999h8.833299l-9.737929 10.224538 10.114521 17.096809h-8.644599l-6.581848-11.726799-2.942274 3.089617v8.637182h-6.978687zm31.939823 28.22794c.150637 1.276431.476207 2.183024.976709 2.719779.885192.956505 2.520329 1.435167 4.907838 1.435167 1.402703 0 2.51709-.209466 3.343971-.630033.826882-.41975 1.239918-1.048965 1.239918-1.888463 0-.805952-.332049-1.417984-.998575-1.838552-.665717-.419749-3.143122-1.141423-7.431407-2.165023-3.087241-.771586-5.261753-1.737909-6.525967-2.895698-1.261784-1.142241-1.893486-2.786055-1.893486-4.935532 0-2.534861.987236-4.712975 2.96009-6.534344 1.973664-1.821369 4.749103-2.732053 8.329558-2.732053 3.396613 0 6.164763.684036 8.305261 2.052108 2.139688 1.36889 3.367457 3.731924 3.684118 7.089101h-7.103408c-.100424-.923776-.357964-1.653633-.774239-2.191207-.783959-.972869-2.117012-1.460531-3.99997-1.460531-1.548479 0-2.652338.243831-3.310766.730675-.657618.487662-.987237 1.057965-.987237 1.712544 0 .823135.349866 1.418802 1.049597 1.787822.699732.38702 3.171468 1.049782 7.417639 1.989923 2.828081.671762 4.949142 1.687179 6.361563 3.047069 1.396223 1.377073 2.094335 3.096981 2.094335 5.162181 0 2.719779-1.004244 4.940442-3.010303 6.661169-2.006868 1.720727-5.107877 2.580681-9.302216 2.580681-4.278566 0-7.438696-.910684-9.477149-2.732053-2.040074-1.822187-3.059706-4.141854-3.059706-6.963094h7.203832z" fill="#4b4b4b"/><text fill="#fff" font-family="Helvetica-Bold, Helvetica" font-size="36" font-weight="bold" opacity=".6"><tspan x="268" y="170">Incoming</tspan></text></g></svg>

<?xml version="1.0" encoding="UTF-8"?>
<svg width="640px" height="360px" viewBox="0 0 640 360" version="1.1" xmlns="http://www.w3.org/2000/svg" xmlns:xlink="http://www.w3.org/1999/xlink">
    <!-- Generator: Sketch 50.2 (55047) - http://www.bohemiancoding.com/sketch -->
    <title>incoming-webhooks/picture</title>
    <desc>Created with Sketch.</desc>
    <defs></defs>
    <g id="incoming-webhooks/picture" stroke="none" stroke-width="1" fill="none" fill-rule="evenodd">
        <rect id="Rectangle" fill="#4A90E2" x="0" y="0" width="640" height="360"></rect>
        <g id="Group" transform="translate(134.000000, 125.000000)">
            <path d="M54.5524465,46.2652594 C49.7108444,54.4765179 45.0722161,62.4283872 40.3370624,70.3201874 C39.1210237,72.346153 38.5193191,73.9962318 39.4908871,76.5719203 C42.1728478,83.6864633 38.3894159,90.6098775 31.2781154,92.489311 C24.5718605,94.2622584 18.0379077,89.8153277 16.7073016,82.5715452 C15.5282493,76.1596281 20.460062,69.8742201 27.4667182,68.872159 C28.0539891,68.7875162 28.6529874,68.7775047 29.6398912,68.7028735 C33.0733061,62.8943774 36.5906168,56.9448101 40.2982719,50.6712339 C33.5947232,43.9462297 29.604709,36.084464 30.4878707,26.3432648 C31.1121279,19.4571662 33.7958929,13.5066888 38.7015445,8.62926315 C48.096977,-0.710565488 62.430537,-2.22321363 73.4930611,4.94593763 C84.1180639,11.8320362 88.9840229,25.2456392 84.8361401,36.7261107 C81.7085391,35.8705817 78.5592876,35.0077716 75.0970053,34.0603187 C76.3996462,27.677526 75.4361971,21.9454815 71.1692364,17.0352909 C68.3501556,13.793382 64.7327111,12.0941557 60.6191084,11.4679813 C52.3729588,10.2110817 44.2765587,15.5563179 41.8742508,23.7220695 C39.1471848,32.9899972 43.2743191,40.560519 54.5524465,46.2652594 Z" id="Shape" fill="#FFFFFF"></path>
            <path d="M68.7765924,36.7797206 C72.1874547,42.8503362 75.6506391,49.0128757 79.0831519,55.1189866 C96.4324517,49.7036698 109.512987,59.3929912 114.205741,69.7667358 C119.873672,82.2975057 115.999128,97.1391141 104.867141,104.86982 C93.4410687,112.806217 78.9911371,111.450112 68.8677051,101.255665 C71.4477279,99.0767963 74.0403801,96.8879162 76.8107472,94.5497735 C86.8096885,101.083649 95.5547027,100.776023 102.047159,93.0389457 C107.583382,86.4386302 107.463402,76.5973159 101.766604,70.1353414 C95.1920562,62.6785867 86.3856988,62.4510524 75.7408497,69.609282 C71.3250415,61.70565 66.8325543,53.8648174 62.5565726,45.9038467 C61.1150074,43.2207621 59.5227906,41.6644274 56.2734053,41.0965017 C50.8463364,40.1472285 47.3425573,35.4454594 47.1323666,30.1775849 C46.9257844,24.9679592 49.9676853,20.258909 54.7226853,18.4240722 C59.43258,16.6065281 64.9597826,18.0736694 68.1279783,22.1137687 C70.7170221,25.4148366 71.5397427,29.1300169 70.1775628,33.2010609 C69.7986784,34.3360021 69.3079328,35.4345378 68.7765924,36.7797206 Z" id="Shape" fill="#4B4B4B" style="mix-blend-mode: multiply;"></path>
            <path d="M76.6970213,86.800298 L55.8114665,86.800298 C53.8096936,95.1071209 49.4859002,101.813922 42.0354079,106.078826 C36.2438883,109.393546 30.0013158,110.517565 23.3573062,109.435412 C11.1247508,107.444942 1.12220101,96.3348961 0.241745694,83.8241492 C-0.755081278,69.6524018 8.90015771,57.0551919 21.7695999,54.2255751 C22.6581741,57.4811361 23.5557695,60.7676418 24.4443437,64.0150116 C12.6366802,70.0929082 8.55014064,77.7508032 11.8545544,87.3263574 C14.7638458,95.7533183 23.0271354,100.372265 31.9994803,98.5856655 C41.1621695,96.7617504 45.7818536,89.0792818 45.2180374,76.7496522 C53.9044147,76.7496522 62.5980088,76.6586385 71.2852882,76.7942489 C74.6772063,76.847947 77.2960196,76.4929935 79.8516855,73.4758884 C84.0591072,68.5110897 91.8027839,68.9588772 96.3340616,73.6479044 C100.964571,78.4397771 100.742653,86.15046 95.8424139,90.7402823 C91.1144771,95.1690102 83.6450406,94.9323745 79.2220156,90.1605248 C78.3126929,89.1766664 77.5964208,88.0089603 76.6970213,86.800298 Z" id="Shape" fill="#4A4A4A" style="mix-blend-mode: multiply;"></path>
        </g>
        <path d="M283.777162,189.619052 L290.980184,189.619052 L295.117832,209.385728 L299.354284,189.619052 L306.757345,189.619052 L298.881318,217.066405 L291.578681,217.066405 L287.315502,197.072262 L283.003732,217.066405 L275.626586,217.066405 L268,189.619052 L275.626586,189.619052 L279.863849,209.310452 L283.777162,189.619052 Z M326.526377,190.175445 C328.421483,191.032944 329.98616,192.386288 331.221219,194.235477 C332.333986,195.866199 333.055584,197.757935 333.386013,199.910684 C333.576333,201.171569 333.654891,202.98721 333.619257,205.357607 L313.832407,205.357607 C313.94336,208.110934 314.890103,210.041945 316.674256,211.149003 C317.758678,211.837948 319.064195,212.181603 320.590808,212.181603 C322.208937,212.181603 323.522553,211.761853 324.534896,210.923173 C325.087231,210.469058 325.573965,209.840661 325.996719,209.033892 L333.249144,209.033892 C333.058014,210.662159 332.18011,212.31661 330.615433,213.993971 C328.180951,216.663839 324.775429,217.998364 320.394819,217.998364 C316.77954,217.998364 313.589445,216.872486 310.826154,214.621549 C308.062053,212.369795 306.680407,208.706602 306.680407,203.631971 C306.680407,198.877266 307.927614,195.231256 310.422836,192.694759 C312.917249,190.157444 316.155127,188.889195 320.138089,188.889195 C322.501302,188.888377 324.631271,189.317945 326.526377,190.175445 Z M315.900016,196.375135 C314.895772,197.420008 314.26407,198.836355 314.00653,200.623358 L326.244541,200.623358 C326.114961,198.717712 325.484879,197.271909 324.352675,196.285948 C323.22047,195.299169 321.815338,194.805779 320.139708,194.805779 C318.316681,194.806597 316.903451,195.328625 315.900016,196.375135 Z M359.82598,192.917316 C361.858764,195.52009 362.874346,198.877266 362.874346,202.990483 C362.874346,207.254253 361.872532,210.788166 359.867283,213.591404 C357.862844,216.395461 355.066348,217.79708 351.476175,217.79708 C349.220675,217.79708 347.409796,217.343784 346.039489,216.43719 C345.220706,215.900435 344.335514,214.960295 343.384721,213.617588 L343.384721,217.067224 L336.380928,217.067224 L336.380928,180 L343.484336,180 L343.484336,193.194694 C344.387345,191.919082 345.382681,190.945394 346.469532,190.273632 C347.758042,189.434951 349.396418,189.015202 351.385469,189.015202 C354.978882,189.015202 357.794005,190.315361 359.82598,192.917316 Z M353.888791,209.637742 C354.910852,208.144481 355.422693,206.179923 355.422693,203.745704 C355.422693,201.798329 355.170822,200.186426 354.66789,198.911632 C353.713048,196.493777 351.954001,195.285259 349.390749,195.285259 C346.793482,195.285259 345.009329,196.468412 344.03829,198.835537 C343.535358,200.094785 343.283487,201.723052 343.283487,203.721158 C343.283487,206.071099 343.803426,208.018475 344.842495,209.563283 C345.880754,211.108092 347.463248,211.879678 349.591598,211.879678 C351.434872,211.87886 352.86673,211.132639 353.888791,209.637742 Z M385.961434,189.770423 C387.325262,190.358727 388.446128,191.257138 389.322412,192.467293 C390.067496,193.492528 390.521836,194.54722 390.68786,195.63055 C390.853884,196.71388 390.936492,198.482064 390.936492,200.935102 L390.936492,217.065587 L383.684067,217.065587 L383.684067,200.352526 C383.684067,198.873175 383.435436,197.679385 382.940602,196.772792 C382.298372,195.495543 381.077082,194.856509 379.27997,194.856509 C377.41483,194.856509 376.001599,195.490633 375.036229,196.7597 C374.071669,198.028767 373.588984,199.839499 373.588984,202.192713 L373.588984,217.066405 L366.485576,217.066405 L366.485576,180.075277 L373.588984,180.075277 L373.588984,193.169329 C374.615904,191.575427 375.80237,190.462642 377.149191,189.833427 C378.498442,189.203393 379.917342,188.889195 381.40751,188.889195 C383.078281,188.888377 384.595985,189.182938 385.961434,189.770423 Z M418.664158,213.70841 C416.371404,216.568106 412.889755,217.997545 408.220829,217.997545 C403.551094,217.997545 400.071064,216.568106 397.77669,213.70841 C395.484746,210.848715 394.337964,207.406442 394.337964,203.379958 C394.337964,199.422204 395.484746,195.992205 397.77669,193.089962 C400.070254,190.188536 403.551094,188.737824 408.220829,188.737824 C412.889755,188.737824 416.370594,190.188536 418.664158,193.089962 C420.957723,195.992205 422.103695,199.422204 422.103695,203.379958 C422.103695,207.406442 420.957723,210.848715 418.664158,213.70841 Z M412.98208,209.742474 C414.094848,208.250851 414.652041,206.130012 414.652041,203.380776 C414.652041,200.632359 414.094848,198.515611 412.98208,197.032169 C411.868503,195.549546 410.273861,194.806597 408.197343,194.806597 C406.120015,194.806597 404.520513,195.548727 403.398837,197.032169 C402.277162,198.515611 401.716729,200.63154 401.716729,203.380776 C401.716729,206.130012 402.277162,208.250851 403.398837,209.742474 C404.520513,211.234098 406.119205,211.979501 408.197343,211.979501 C410.273861,211.979501 411.868503,211.234098 412.98208,209.742474 Z M448.454575,213.70841 C446.162631,216.568106 442.680981,217.997545 438.011246,217.997545 C433.341511,217.997545 429.862291,216.568106 427.569536,213.70841 C425.275972,210.848715 424.12919,207.406442 424.12919,203.379958 C424.12919,199.422204 425.275972,195.992205 427.569536,193.089962 C429.861481,190.188536 433.341511,188.737824 438.011246,188.737824 C442.680981,188.737824 446.161821,190.188536 448.454575,193.089962 C450.748139,195.992205 451.894921,199.422204 451.894921,203.379958 C451.894921,207.406442 450.748139,210.848715 448.454575,213.70841 Z M442.773307,209.742474 C443.885264,208.250851 444.443268,206.130012 444.443268,203.380776 C444.443268,200.632359 443.885264,198.515611 442.773307,197.032169 C441.65973,195.549546 440.065087,194.806597 437.988569,194.806597 C435.911242,194.806597 434.31093,195.548727 433.189254,197.032169 C432.067578,198.515611 431.507955,200.63154 431.507955,203.380776 C431.507955,206.130012 432.067578,208.250851 433.189254,209.742474 C434.31093,211.234098 435.910432,211.979501 437.988569,211.979501 C440.065087,211.979501 441.65973,211.234098 442.773307,209.742474 Z M455.414635,180.075277 L462.393322,180.075277 L462.393322,200.098876 L471.352152,189.745877 L480.185451,189.745877 L470.447522,199.970415 L480.562043,217.067224 L471.917444,217.067224 L465.335596,205.340425 L462.393322,208.430042 L462.393322,217.067224 L455.414635,217.067224 L455.414635,180.075277 Z M487.354458,208.303217 C487.505095,209.579648 487.830665,210.486241 488.331167,211.022996 C489.216359,211.979501 490.851496,212.458163 493.239005,212.458163 C494.641708,212.458163 495.756095,212.248697 496.582976,211.82813 C497.409858,211.40838 497.822894,210.779165 497.822894,209.939667 C497.822894,209.133715 497.490845,208.521683 496.824319,208.101115 C496.158602,207.681366 493.681197,206.959692 489.392912,205.936092 C486.305671,205.164506 484.131159,204.198183 482.866945,203.040394 C481.605161,201.898153 480.973459,200.254339 480.973459,198.104862 C480.973459,195.570001 481.960695,193.391887 483.933549,191.570518 C485.907213,189.749149 488.682652,188.838465 492.263107,188.838465 C495.65972,188.838465 498.42787,189.522501 500.568368,190.890573 C502.708056,192.259463 503.935825,194.622497 504.252486,197.979674 L497.149078,197.979674 C497.048654,197.055898 496.791114,196.326041 496.374839,195.788467 C495.59088,194.815598 494.257827,194.327936 492.374869,194.327936 C490.82639,194.327936 489.722531,194.571767 489.064103,195.058611 C488.406485,195.546273 488.076866,196.116576 488.076866,196.771155 C488.076866,197.59429 488.426732,198.189957 489.126463,198.558977 C489.826195,198.945997 492.297931,199.608759 496.544102,200.5489 C499.372183,201.220662 501.493244,202.236079 502.905665,203.595969 C504.301888,204.973042 505,206.69295 505,208.75815 C505,211.477929 503.995756,213.698592 501.989697,215.419319 C499.982829,217.140046 496.88182,218 492.687481,218 C488.408915,218 485.248785,217.089316 483.210332,215.267947 C481.170258,213.44576 480.150626,211.126093 480.150626,208.304853 L487.354458,208.304853 L487.354458,208.303217 Z" id="Combined-Shape" fill="#4B4B4B" style="mix-blend-mode: multiply;"></path>
        <text id="Incoming" opacity="0.6" font-family="Helvetica-Bold, Helvetica" font-size="36" font-weight="bold" fill="#FFFFFF">
            <tspan x="268" y="170">Incoming</tspan>
        </text>
    </g>
</svg>
